brandFactory_export/1.Light/Casino_1Light.svg

<?xml version="1.0" encoding="UTF-8"?>
<svg width="24px" height="24px" viewBox="0 0 24 24" version="1.1" xmlns="http://www.w3.org/2000/svg" xmlns:xlink="http://www.w3.org/1999/xlink">
    <title>1.Light/Casino_1Light</title>
    <g id="Symbols" stroke="none" stroke-width="1" fill="none" fill-rule="evenodd">
        <g id="1.Light/Casino_1Light" fill="#5CB615" fill-rule="nonzero">
            <path d="M7.65042017,6.95462185 L7.59663866,6.95462185 C7.41512605,6.96470588 7.24369748,7.02521008 7.12941176,7.12605042 C6.86386555,7.35462185 6.91428571,7.76806723 6.96806723,7.99327731 C7.00840336,8.16470588 7.0789916,8.34285714 7.14957983,8.5210084 C7.27394958,8.83697479 7.42521008,9.15966387 7.63361345,9.48571429 C7.65714286,9.52268908 7.67731092,9.54957983 7.70084034,9.58319328 C7.9394958,9.94621849 8.14117647,10.1983193 8.48067227,10.5445378 C8.51092437,10.5781513 8.61176471,10.6789916 8.69579832,10.7394958 C8.7394958,10.7697479 8.78319328,10.7932773 8.82689076,10.8 L8.86386555,10.8033613 L8.86722689,10.8033613 C8.93445378,10.789916 8.98151261,10.7697479 9.02184874,10.7361345 C9.10588235,10.6756303 9.20672269,10.5747899 9.23361345,10.5445378 C9.54285714,10.2218487 9.74117647,9.97983193 9.95294118,9.67058824 C9.99663866,9.61008403 10.0369748,9.54957983 10.0840336,9.4789916 C10.2352941,9.24033613 10.3563025,9.00840336 10.4672269,8.77647059 C10.5915966,8.50420168 10.6890756,8.24201681 10.7529412,7.98319328 C10.8168067,7.70756303 10.8436975,7.33109244 10.5915966,7.11596639 C10.4773109,7.01512605 10.3058824,6.95462185 10.1210084,6.94453782 C10.107563,6.94453782 10.0941176,6.94789916 10.0806723,6.94789916 C9.86890756,6.94117647 9.6605042,6.99831933 9.45882353,7.11260504 C9.36134454,7.1697479 9.2605042,7.22352941 9.15294118,7.2907563 L9.0487395,7.3512605 L9.03529412,7.36134454 C9.03529412,7.36134454 8.95798319,7.41512605 8.88403361,7.41176471 C8.81008403,7.41176471 8.73613445,7.36806723 8.73613445,7.36806723 L8.72605042,7.36470588 L8.58823529,7.29747899 C8.46386555,7.22352941 8.36302521,7.16638655 8.26554622,7.11260504 C8.25882353,7.1092437 8.25210084,7.1092437 8.25210084,7.10588235 C8.05042017,7.01176471 7.84537815,6.95462185 7.65042017,6.95462185 L7.65042017,6.95462185 Z M6.48403361,6.37310924 C6.76302521,6.13109244 7.14285714,5.98655462 7.54957983,5.96638655 C7.9394958,5.94285714 8.3697479,6.04705882 8.74621849,6.25882353 C8.78655462,6.2789916 8.82352941,6.30252101 8.8605042,6.32268908 C8.90084034,6.30252101 8.93781513,6.2789916 8.97815126,6.25882353 C9.2302521,6.11764706 9.50252101,6.04705882 9.77478992,6.00672269 C9.9092437,5.98655462 10.0470588,5.95966387 10.1747899,5.96638655 C10.5781513,5.98655462 10.9579832,6.13445378 11.2403361,6.37647059 C11.2571429,6.38991597 11.2638655,6.40672269 11.2773109,6.42016807 C11.7277311,6.83697479 11.892437,7.48907563 11.7210084,8.22521008 C11.6806723,8.4 11.6033613,8.57815126 11.5394958,8.75630252 C11.4453782,9.00840336 11.3344538,9.2605042 11.1966387,9.51932773 C11.1058824,9.6907563 11.0285714,9.85882353 10.9210084,10.0302521 C10.8336134,10.1647059 10.7529412,10.2823529 10.6689076,10.3966387 C10.4605042,10.6857143 10.2521008,10.9344538 9.95966387,11.2336134 C9.90588235,11.287395 9.74117647,11.4554622 9.6,11.5563025 C9.5092437,11.6201681 9.40840336,11.6705882 9.30420168,11.7142857 C9.23697479,11.7411765 9.16638655,11.7680672 9.09579832,11.7815126 C9.05210084,11.794958 8.98823529,11.8016807 8.9210084,11.8084034 L8.8605042,11.8117647 L8.85714286,11.8117647 C8.72268908,11.805042 8.65882353,11.794958 8.59831933,11.7815126 C8.44033613,11.7445378 8.26554622,11.6672269 8.11428571,11.5596639 C7.97310924,11.4588235 7.80840336,11.2941176 7.76134454,11.2436975 C7.57983193,11.0554622 7.42857143,10.887395 7.2907563,10.7159664 C7.11932773,10.507563 6.96806723,10.292437 6.8,10.0369748 C6.71932773,9.91260504 6.66890756,9.79159664 6.59831933,9.66722689 C6.32941176,9.18319328 6.11092437,8.70252101 6.00336134,8.23193277 C5.82184874,7.46554622 6,6.78991597 6.48403361,6.37310924 L6.48403361,6.37310924 Z M20.9613445,19.3008403 C21.9831933,18.087395 22.5378151,16.4033613 22.6151261,14.2857143 L20.4571429,14.2857143 C20.3798319,15.6739496 19.9966387,16.8 19.3176471,17.6537815 L20.9613445,19.3008403 Z M15.2571429,21.6369748 C17.3647059,21.5596639 19.0420168,21.0117647 20.2554622,19.9966387 L18.6184874,18.3563025 C17.7647059,19.0285714 16.6420168,19.405042 15.2571429,19.4789916 L15.2571429,21.6369748 L15.2571429,21.6369748 Z M14.2655462,18.487395 C14.4302521,18.4941176 14.5815126,18.5176471 14.7529412,18.5176471 C14.9310924,18.5176471 15.0890756,18.4941176 15.2571429,18.4840336 C16.5512605,18.4067227 17.5764706,18.0436975 18.2722689,17.3747899 C18.9983193,16.6756303 19.3848739,15.6268908 19.4689076,14.2823529 C19.4823529,14.1109244 19.5058824,13.9529412 19.5058824,13.7714286 C19.5058824,13.6 19.4823529,13.4521008 19.4722689,13.2907563 C19.394958,11.9294118 19.0016807,10.8672269 18.2722689,10.1613445 C18.097479,9.99327731 17.8991597,9.85210084 17.6907563,9.7210084 C17.6201681,10.9915966 17.3815126,12.1176471 16.9781513,13.0991597 C16.5882353,14.0605042 16.0470588,14.887395 15.3445378,15.5596639 C14.9983193,15.8957983 14.6084034,16.1882353 14.1882353,16.4470588 C13.4084034,16.9277311 12.507563,17.2739496 11.4890756,17.4890756 C11.4655462,17.492437 11.4420168,17.4957983 11.4184874,17.502521 C11.4789916,17.5529412 11.5462185,17.6 11.610084,17.6470588 C12.2789916,18.1445378 13.1697479,18.4235294 14.2655462,18.487395 L14.2655462,18.487395 Z M14.2655462,21.6369748 L14.2655462,19.4789916 C12.8840336,19.405042 11.7579832,19.0285714 10.9042017,18.3596639 L9.2605042,20.0033613 C10.4773109,21.0184874 12.1546218,21.5630252 14.2655462,21.6369748 Z M7.58991597,17.697479 C7.84201681,18.2991597 8.16470588,18.8369748 8.55462185,19.3042017 L10.1680672,17.687395 C9.74453782,17.7277311 9.30420168,17.7546218 8.84369748,17.7546218 C8.41344538,17.7579832 7.99663866,17.7344538 7.58991597,17.697479 L7.58991597,17.697479 Z M6.17815126,16.4739496 C6.51764706,16.5546218 6.87058824,16.6184874 7.24033613,16.6655462 C7.60336134,16.712605 7.97983193,16.7394958 8.36638655,16.7529412 L8.36638655,14.594958 C7.8487395,14.5680672 7.36134454,14.4941176 6.91428571,14.3831933 C6.78319328,14.3495798 6.64537815,14.3294118 6.52436975,14.2890756 C6.32605042,14.2252101 6.14789916,14.1378151 5.96302521,14.0537815 C5.94621849,14.0436975 5.92941176,14.0369748 5.91260504,14.0302521 C5.58319328,13.8756303 5.27731092,13.6907563 5.00504202,13.4756303 L3.36134454,15.1193277 C4.1210084,15.7512605 5.05882353,16.2084034 6.17815126,16.4739496 Z M1.00504202,9.40168067 C1.08235294,11.5226891 1.63361345,13.2067227 2.65210084,14.4201681 L4.29915966,12.7731092 C3.61680672,11.9193277 3.23361345,10.7932773 3.15966387,9.40168067 L1.00504202,9.40168067 Z M2.63865546,3.37478992 C1.62352941,4.59495798 1.0789916,6.28571429 1.00504202,8.40672269 L3.15966387,8.40672269 C3.2302521,7.01176471 3.61008403,5.8789916 4.28571429,5.01848739 L2.63865546,3.37478992 Z M8.36302521,1.01176471 C6.24201681,1.08571429 4.55462185,1.64369748 3.34117647,2.67226891 L4.97815126,4.31260504 C5.83529412,3.62689076 6.96806723,3.24369748 8.36302521,3.1697479 L8.36302521,1.01176471 Z M8.85042017,4.13109244 C8.6789916,4.13109244 8.52773109,4.1512605 8.36302521,4.16134454 C7.06554622,4.23529412 6.03697479,4.59831933 5.34117647,5.27731092 C4.61512605,5.98319328 4.22521008,7.04537815 4.14789916,8.40672269 C4.13781513,8.56806723 4.11764706,8.71596639 4.11764706,8.88739496 C4.11764706,9.06890756 4.14117647,9.22689076 4.1512605,9.39831933 C4.22184874,10.5042017 4.50420168,11.394958 5.00168067,12.0672269 C5.1092437,12.2117647 5.21008403,12.3663866 5.33781513,12.4907563 C5.4487395,12.5915966 5.58319328,12.6722689 5.70420168,12.7663866 C5.77815126,12.8235294 5.84537815,12.8840336 5.92941176,12.9344538 C6.16134454,13.0756303 6.41680672,13.1966387 6.69579832,13.2941176 C6.76638655,13.3210084 6.83361345,13.3445378 6.90420168,13.3647059 C7.33781513,13.4957983 7.83193277,13.5697479 8.36302521,13.6 C8.52773109,13.610084 8.6789916,13.6302521 8.85042017,13.6302521 C8.91764706,13.6302521 8.97478992,13.6168067 9.04201681,13.6168067 C9.14957983,13.6134454 9.25042017,13.6033613 9.35462185,13.5966387 C9.58991597,13.5798319 9.82184874,13.5697479 10.0369748,13.5361345 C10.0672269,13.5327731 10.0941176,13.5226891 10.1277311,13.5159664 C11.0621849,13.3546218 11.8184874,13.0184874 12.3731092,12.487395 C13.0991597,11.7915966 13.4857143,10.7394958 13.5697479,9.39495798 C13.5764706,9.29747899 13.589916,9.20336134 13.589916,9.09915966 C13.5932773,9.02521008 13.6033613,8.96134454 13.6033613,8.88403361 C13.6033613,8.71260504 13.5798319,8.56470588 13.5697479,8.40336134 C13.5630252,8.30252101 13.5563025,8.19831933 13.5495798,8.10420168 C13.4689076,7.28067227 13.2705882,6.57478992 12.9344538,6.00336134 C12.7731092,5.73109244 12.5882353,5.48571429 12.3697479,5.27394958 C12.3159664,5.22016807 12.2453782,5.18319328 12.1915966,5.13613445 C11.502521,4.55462185 10.5478992,4.22857143 9.35462185,4.15798319 C9.18655462,4.1512605 9.02857143,4.13109244 8.85042017,4.13109244 Z M9.35462185,1.01176471 L9.35462185,3.17310924 C10.7462185,3.24705882 11.8823529,3.63361345 12.7361345,4.31932773 L14.3764706,2.68235294 C13.1563025,1.65042017 11.4722689,1.08907563 9.35462185,1.01176471 L9.35462185,1.01176471 Z M14.3529412,15.1092437 L14.3394958,15.0991597 L12.712605,13.4689076 C12.5546218,13.5932773 12.4,13.7277311 12.2252101,13.8319328 C11.6134454,14.1915966 10.8941176,14.4268908 10.0705882,14.5378151 C9.84201681,14.5680672 9.59327731,14.5747899 9.3512605,14.5882353 L9.3512605,16.7462185 C9.44537815,16.7428571 9.54285714,16.7428571 9.6302521,16.7361345 C9.99327731,16.7159664 10.3394958,16.6823529 10.6722689,16.6319328 C11.7714286,16.4705882 12.7327731,16.1546218 13.5394958,15.6840336 C13.8352941,15.5159664 14.097479,15.3210084 14.3529412,15.1092437 L14.3529412,15.1092437 Z M13.794958,13.1495798 L15.0588235,14.4168067 C15.3512605,14.0705882 15.6033613,13.6840336 15.8218487,13.2605042 C15.9865546,12.9378151 16.1310924,12.5915966 16.2487395,12.2252101 C16.5210084,11.394958 16.6722689,10.4537815 16.7092437,9.40504202 L14.5546218,9.40504202 C14.5243697,10.0067227 14.4369748,10.5579832 14.2890756,11.0588235 C14.0941176,11.7176471 13.8016807,12.2890756 13.4151261,12.7731092 L13.794958,13.1495798 L13.794958,13.1495798 Z M16.0201681,4.95462185 C15.7680672,4.36638655 15.4554622,3.83865546 15.0756303,3.38151261 L13.5092437,4.9512605 L13.4319328,5.02521008 C13.6436975,5.29411765 13.8252101,5.58991597 13.9764706,5.9092437 C14.087395,6.13781513 14.1882353,6.37310924 14.2655462,6.62857143 C14.4,7.05882353 14.4840336,7.53613445 14.5310924,8.04033613 C14.5411765,8.16134454 14.5512605,8.28235294 14.5579832,8.41008403 L16.712605,8.41008403 C16.712605,8.36302521 16.7092437,8.31932773 16.7058824,8.27563025 C16.6689076,7.44537815 16.5613445,6.68235294 16.3731092,5.98991597 C16.2756303,5.62352941 16.1579832,5.27731092 16.0201681,4.95462185 Z M20.2756303,7.56638655 C19.5092437,6.91764706 18.5647059,6.45378151 17.4386555,6.17815126 C17.6033613,6.93109244 17.6941176,7.74789916 17.7109244,8.62857143 C18.0504202,8.78655462 18.3563025,8.98151261 18.6386555,9.20336134 L20.2756303,7.56638655 L20.2756303,7.56638655 Z M22.6151261,13.2941176 C22.5411765,11.1764706 21.9966387,9.48571429 20.9781513,8.26554622 L19.3344538,9.91260504 C20.010084,10.7697479 20.389916,11.902521 20.4605042,13.2941176 L22.6151261,13.2941176 Z M21.2470588,7.09579832 C22.8235294,8.61512605 23.6235294,10.8672269 23.6235294,13.7815126 C23.6235294,16.6957983 22.8235294,18.9411765 21.2470588,20.4537815 C19.7344538,21.9092437 17.5495798,22.6453782 14.7495798,22.6453782 C11.9529412,22.6453782 9.77142857,21.9092437 8.26554622,20.4537815 C7.45882353,19.6773109 6.8605042,18.702521 6.46722689,17.5462185 C4.78991597,17.2336134 3.40840336,16.5781513 2.36302521,15.5663866 C0.796638655,14.0537815 0,11.8084034 0,8.89747899 C0,5.97983193 0.793277311,3.73109244 2.35966387,2.21176471 C3.86890756,0.749579832 6.05042017,0.00672268908 8.84705882,0.00672268908 C11.6470588,0.00672268908 13.8319328,0.749579832 15.3478992,2.20840336 C16.1546218,2.98823529 16.7529412,3.95966387 17.1495798,5.1092437 C18.8235294,5.42521008 20.1983193,6.08403361 21.2470588,7.09579832 Z" id="Casino_1Light"></path>
        </g>
    </g>
</svg>

<svg width="24" height="24" viewBox="0 0 24 24" xmlns="http://www.w3.org/2000/svg"><path d="M7.65 6.955h-.053a.78.78 0 00-.468.171c-.265.229-.215.642-.16.867.04.172.11.35.18.528.125.316.276.639.485.965.023.037.043.064.067.097.238.363.44.615.78.962a1.7 1.7 0 00.215.194c.043.03.087.054.13.061l.038.003h.003a.328.328 0 00.155-.067c.084-.06.185-.161.212-.191.309-.323.507-.565.719-.874.044-.06.084-.121.131-.192.151-.239.272-.47.383-.703.125-.272.222-.534.286-.793.064-.275.09-.652-.161-.867a.783.783 0 00-.471-.171l-.04.003c-.212-.007-.42.05-.622.165-.098.057-.198.11-.306.178l-.104.06-.014.01s-.077.054-.151.05a.338.338 0 01-.148-.043l-.01-.003-.138-.068a11.108 11.108 0 00-.322-.184c-.007-.004-.014-.004-.014-.007a1.446 1.446 0 00-.602-.151zm-1.166-.582a1.761 1.761 0 011.066-.407c.39-.023.82.081 1.196.293.04.02.078.044.115.064.04-.02.077-.044.117-.064.252-.141.525-.212.797-.252.134-.02.272-.047.4-.04.403.02.783.167 1.065.41.017.013.024.03.037.043.45.417.615 1.07.444 1.805-.04.175-.118.353-.182.531a6.29 6.29 0 01-.342.763c-.091.172-.168.34-.276.511a7.605 7.605 0 01-.961 1.204c-.054.053-.219.221-.36.322a1.558 1.558 0 01-.504.226c-.044.013-.108.02-.175.026l-.06.004h-.004a1.421 1.421 0 01-.259-.03 1.422 1.422 0 01-.484-.222 2.892 2.892 0 01-.353-.316 7.721 7.721 0 01-.961-1.207c-.08-.124-.131-.245-.202-.37-.269-.484-.487-.964-.595-1.435-.181-.766-.003-1.442.481-1.859zm14.477 12.928c1.022-1.214 1.577-2.898 1.654-5.015h-2.158c-.077 1.388-.46 2.514-1.14 3.368l1.644 1.647zm-5.704 2.336c2.108-.077 3.785-.625 4.998-1.64l-1.637-1.64c-.853.672-1.976 1.048-3.36 1.122v2.158zm-.991-3.15c.164.007.316.03.487.03.178 0 .336-.023.504-.033 1.294-.077 2.32-.44 3.015-1.11.726-.698 1.113-1.747 1.197-3.092.013-.171.037-.33.037-.51 0-.172-.024-.32-.034-.481-.077-1.362-.47-2.424-1.2-3.13a3.573 3.573 0 00-.581-.44c-.07 1.27-.31 2.397-.713 3.378-.39.962-.93 1.788-1.633 2.46a6.678 6.678 0 01-1.157.888c-.78.48-1.68.827-2.699 1.042-.023.003-.047.007-.07.014.06.05.127.097.191.144.669.498 1.56.777 2.656.84zm0 3.15v-2.158c-1.382-.074-2.508-.45-3.362-1.12l-1.643 1.644c1.216 1.015 2.894 1.56 5.005 1.634zm-6.676-3.94c.252.602.575 1.14.965 1.607l1.613-1.617c-.423.04-.864.068-1.324.068a12.7 12.7 0 01-1.254-.058zm-1.412-1.223c.34.08.693.144 1.062.192.363.047.74.073 1.126.087v-2.158a7.701 7.701 0 01-1.452-.212c-.13-.033-.269-.054-.39-.094-.198-.064-.376-.151-.561-.235-.017-.01-.034-.017-.05-.024a4.646 4.646 0 01-.908-.554l-1.644 1.643c.76.632 1.698 1.09 2.817 1.355zM1.005 9.402c.077 2.12.629 3.805 1.647 5.018L4.3 12.773c-.682-.854-1.065-1.98-1.14-3.371H1.006zm1.634-6.027c-1.015 1.22-1.56 2.91-1.634 5.032H3.16c.07-1.395.45-2.528 1.126-3.389L2.639 3.375zm5.724-2.363c-2.121.074-3.808.632-5.022 1.66l1.637 1.64c.857-.685 1.99-1.068 3.385-1.142V1.012zm.487 3.12c-.171 0-.322.02-.487.03-1.297.073-2.326.436-3.022 1.115-.726.706-1.116 1.768-1.193 3.13-.01.161-.03.309-.03.48 0 .182.023.34.033.511.07 1.106.353 1.997.85 2.67.108.144.21.298.337.423.11.1.245.181.366.275.074.058.141.118.225.168.232.142.488.263.767.36.07.027.138.05.208.07.434.132.928.206 1.459.236.165.01.316.03.487.03.068 0 .125-.013.192-.013.108-.004.208-.014.313-.02.235-.017.467-.027.682-.06.03-.004.057-.014.09-.021.935-.161 1.691-.498 2.246-1.029.726-.695 1.113-1.748 1.197-3.092.006-.098.02-.192.02-.296.003-.074.013-.138.013-.215 0-.171-.023-.32-.033-.48l-.02-.3c-.081-.823-.28-1.53-.616-2.1a3.465 3.465 0 00-.564-.73c-.054-.054-.125-.09-.178-.138-.69-.581-1.644-.907-2.837-.978-.168-.007-.326-.027-.505-.027zm.505-3.12v2.161c1.391.074 2.527.46 3.381 1.146l1.64-1.637c-1.22-1.032-2.904-1.593-5.021-1.67zm4.998 14.097l-.014-.01-1.626-1.63c-.158.124-.313.259-.488.363-.612.36-1.33.595-2.154.706-.229.03-.478.037-.72.05v2.158c.094-.003.192-.003.28-.01.362-.02.708-.054 1.041-.104 1.1-.161 2.06-.477 2.867-.948a5.62 5.62 0 00.814-.575zm-.558-1.96l1.264 1.268c.292-.346.544-.733.763-1.156.165-.323.31-.67.427-1.036.272-.83.423-1.771.46-2.82h-2.154a7.092 7.092 0 01-.266 1.654 4.979 4.979 0 01-.874 1.714l.38.377zm2.225-8.194a6.372 6.372 0 00-.944-1.573l-1.567 1.57-.077.073c.212.27.393.565.544.884.111.229.212.464.29.72.134.43.218.907.265 1.411.01.121.02.242.027.37h2.155c0-.047-.004-.09-.007-.134a10.507 10.507 0 00-.333-2.286 7.635 7.635 0 00-.353-1.035zm4.256 2.611c-.767-.648-1.711-1.112-2.837-1.388.164.753.255 1.57.272 2.45.34.159.645.354.928.575l1.637-1.637zm2.34 5.728c-.075-2.118-.62-3.808-1.638-5.028l-1.644 1.647c.676.857 1.056 1.99 1.127 3.381h2.154zm-1.369-6.198c1.577 1.52 2.377 3.771 2.377 6.686 0 2.914-.8 5.16-2.377 6.672-1.513 1.455-3.697 2.191-6.497 2.191-2.797 0-4.979-.736-6.484-2.191-.807-.777-1.405-1.751-1.799-2.908-1.677-.312-3.059-.968-4.104-1.98C.797 14.054 0 11.808 0 8.897 0 5.98.793 3.731 2.36 2.212 3.869.75 6.05.007 8.847.007c2.8 0 4.985.743 6.5 2.201.808.78 1.406 1.752 1.803 2.901 1.674.316 3.048.975 4.097 1.987z" fill="#5CB615" fill-rule="nonzero"/></svg>
